X: 117205
Q: "Strathspey."
M: C
L: 1/8
K: D
ud |\
vA<uF vd<uA vB>uA F<d | A<F d>F e<E E>d |\
vf/ug/ |\
va<ud va>uf vd>ua f<a | b<e b>g e>f g<b |\
a<d a>f d>a fa |
(3gbg (3faf e2 df/g/ |\
a<d a>f d>a f<a | b<e b>g e>f g<b |\
a<f b>g f>e d<A | B<d A<d E2 D |]


